X: 33628
T: Ramasse Tes Bourrures
R: reel
M: 4/4
K: Gmajor
dc|:BdAB G2Bd|gdBG c2Bc|dBcA FAdc|BGdB Aedc|
BdAB G2Bd|gdBG c2Bc|dBcA FAdc|1 BGAF G2dc:|2 BGAF G3c||
|:Bdgf g3b|agbg agfe|daag a2ab|agab g2dc|
BGBd ~g3a|bgdB c2Bc|dBcA FAdc|BGAF G3c:|

